svg/fluentui-system-icons/ic_fluent_edit_off_16_filled.svg

<svg width="16" height="16" viewBox="0 0 16 16" fill="none" xmlns="http://www.w3.org/2000/svg">
<path d="M9.00016 9.70726L14.1464 14.8536C14.3417 15.0488 14.6583 15.0488 14.8536 14.8536C15.0488 14.6583 15.0488 14.3417 14.8536 14.1464L1.85355 1.14645C1.65829 0.951184 1.34171 0.951184 1.14645 1.14645C0.951184 1.34171 0.951184 1.65829 1.14645 1.85355L6.29305 7.00016L3.33829 9.95465C3.15725 10.1357 3.02085 10.3564 2.93989 10.5992L2.02567 13.3419C1.96578 13.5216 2.01254 13.7196 2.14646 13.8536C2.28038 13.9875 2.47846 14.0342 2.65813 13.9744L5.40087 13.0601C5.64368 12.9792 5.86432 12.8428 6.04531 12.6618L9.00016 9.70726ZM11.9993 6.70836L10.4143 8.29323L7.70721 5.58612L9.29223 4.00125L11.9993 6.70836ZM10.7332 2.5604C11.4808 1.81291 12.6927 1.81294 13.4403 2.56046C14.1878 3.30803 14.1878 4.52009 13.4402 5.26763L12.7065 6.00129L9.99936 3.29418L10.7332 2.5604Z" fill="#212121"/>
</svg>

<svg xmlns="http://www.w3.org/2000/svg" width="16" height="16"><path d="m9 9.707 5.146 5.147a.5.5 0 0 0 .708-.708l-13-13a.5.5 0 1 0-.708.708L6.293 7 3.338 9.955a1.65 1.65 0 0 0-.398.644l-.914 2.743a.5.5 0 0 0 .632.632l2.743-.914c.243-.08.463-.217.644-.398L9 9.707Zm3-2.999-1.586 1.585-2.707-2.707 1.585-1.585L12 6.708ZM10.732 2.56a1.914 1.914 0 0 1 2.707 2.708L12.707 6 9.998 3.294l.734-.734Z"/></svg>
